X:115
T: Barrel Rafferty's
S: M. Rafferty
Z: B.Black
R: jig
M: 6/8
L: 1/8
K: Ador
D|E2 A AGE |A2 B c2 E |EDE GFG |A2 A GED |
E2 A AGE |A2 B c2 d |ege dBG |A3 A2 :|
d|e2 a aga |b2 a g2 e |ede g2 g |a2 e ged |
e2 a aga |b2 a g2 e |age dBG |A3 A2 :|
